; generated by PrusaSlicer 2.9.4 on 2026-06-03 at 09:38:10 UTC


;
;
; 

; external perimeters extrusion width = 0.45mm
; perimeters extrusion width = 0.45mm
; infill extrusion width = 0.45mm
; solid infill extrusion width = 0.45mm
; top infill extrusion width = 0.40mm
; first layer extrusion width = 0.42mm

; external perimeters extrusion width = 0.45mm
; perimeters extrusion width = 0.45mm
; infill extrusion width = 0.45mm
; solid infill extrusion width = 0.45mm
; top infill extrusion width = 0.40mm
; first layer extrusion width = 0.42mm

M73 P0 R11
M73 Q0 S11
M201 X1000 Y1000 Z200 E5000 ; sets maximum accelerations, mm/sec^2
M203 X200 Y200 Z12 E120 ; sets maximum feedrates, mm / sec
M204 S1250 T1250 ; sets acceleration (S) and retract acceleration (R), mm/sec^2
M205 X8.00 Y8.00 Z0.40 E4.50 ; sets the jerk limits, mm/sec
M205 S0 T0 ; sets the minimum extruding and travel feed rate, mm/sec

; printing object Arm button.stl id:1 copy 0
; stop printing object Arm button.stl id:1 copy 0
; printing object Arm button.stl id:0 copy 0
; stop printing object Arm button.stl id:0 copy 0

;TYPE:Custom
M862.3 P "MK3S" ; printer model check
M862.1 P0.4 ; nozzle diameter check
M115 U3.14.1 ; tell printer latest fw version
G90 ; use absolute coordinates
M83 ; extruder relative mode
M104 S250 ; set extruder temp
M140 S85 ; set bed temp
M190 S85 ; wait for bed temp
M109 S250 ; wait for extruder temp
G28 W ; home all without mesh bed level
G80 X93.0063 Y89.9442 W59.7055 H34.6338 ; mesh bed levelling

G1 Z0.2 F720
G1 Y-3 F1000 ; go outside print area
G92 E0
G1 X60 E9 F1000 ; intro line
G1 X100 E12.5 F1000 ; intro line

G92 E0
M221 S95

; Don't change E values below. Excessive value can damage the printer.

M907 E538 ; set extruder motor current
G21 ; set units to millimeters
G90 ; use absolute coordinates
M83 ; use relative distances for extrusion

M900 K0.08 ; Filament gcode LA 1.5
M900 K45 ; Filament gcode LA 1.0




M107
;LAYER_CHANGE
;Z:0.2
;HEIGHT:0.2
G1 E-1 F2100
G1 Z.4 F720
G1 X96.176 Y108.504 F10800
G1 Z.2 F720
M73 P1 R11
M73 Q1 S11
G1 E1 F2100
M204 S800
;TYPE:Skirt/Brim
;WIDTH:0.42
G1 F1200
G1 X116.28 Y90.684 E.84233
G1 X117.732 Y90.133 E.04869
G1 X128.74 Y90.133 E.34515
G1 X130.092 Y90.6 E.04485
G1 X151.686 Y107.556 E.86085
G1 X152.523 Y109.279 E.06006
G1 X152.52 Y114.288 E.15705
G1 X152.129 Y115.536 E.04101
G1 X150.71 Y116.442 E.05279
G1 X105.374 Y124.349 E1.44294
G1 X104.097 Y124.386 E.04006
G1 X103.034 Y124.303 E.03343
G1 X101.984 Y124.119 E.03342
G1 X100.155 Y123.536 E.06019
G1 X99.007 Y122.977 E.04004
G1 X98.103 Y122.411 E.03344
G1 X97.258 Y121.761 E.03343
G1 X95.908 Y120.396 E.06019
G1 X95.151 Y119.368 E.04003
M73 Q2 S11
G1 X94.612 Y118.448 E.03343
G1 X94.165 Y117.48 E.03343
G1 X93.813 Y116.474 E.03342
G1 X93.43 Y114.592 E.06022
G1 X93.194 Y112.371 E.07003
M73 P2 R11
G1 X93.452 Y111.089 E.041
G1 X93.919 Y110.505 E.02345
G1 X96.131 Y108.543 E.09271
M204 S1000
;WIPE_START
G1 F8640
G1 X96.176 Y108.504 E-.01375
G1 X99.372 Y105.671 E-.98625
;WIPE_END
G1 Z.4 F720
; printing object Arm button.stl id:0 copy 0
G1 X118.519 Y102.534 F10800
G1 Z.2 F720
G1 E1 F2100
M204 S800
;TYPE:Perimeter
;WIDTH:0.419999
G1 F1200
G1 X118.519 Y93.108 E.29555
G1 X127.953 Y93.108 E.2958
G1 X127.953 Y102.534 E.29555
G1 X118.579 Y102.534 E.29391
M204 S1000
G1 X118.142 Y102.911 F10800
M204 S800
;TYPE:External perimeter
G1 F1200
G1 X118.142 Y92.731 E.31919
G1 X128.33 Y92.731 E.31944
G1 X128.33 Y102.911 E.31919
G1 X118.202 Y102.911 E.31756
M204 S1000
;WIPE_START
G1 F8640
G1 X118.142 Y102.911 E-.01385
G1 X118.142 Y98.64 E-.98615
;WIPE_END
G1 Z.4 F720
G1 X127.031 Y93.259 F10800
G1 Z.2 F720
G1 E1 F2100
M204 S800
;TYPE:Solid infill
;WIDTH:0.42417
G1 F1200
G1 X127.632 Y93.861 E.02697
G1 X127.632 Y94.4 E.01709
G1 X126.662 Y93.429 E.04351
G1 X126.122 Y93.429 E.01712
G1 X127.632 Y94.939 E.0677
G1 X127.632 Y95.478 E.01709
G1 X125.583 Y93.429 E.09186
G1 X125.044 Y93.429 E.01709
G1 X127.632 Y96.017 E.11603
G1 X127.632 Y96.556 E.01709
G1 X124.505 Y93.429 E.14019
G1 X123.966 Y93.429 E.01709
G1 X127.632 Y97.096 E.16438
G1 X127.632 Y97.635 E.01709
G1 X123.427 Y93.429 E.18854
G1 X122.887 Y93.429 E.01712
M73 Q3 S11
G1 X127.632 Y98.174 E.21273
G1 X127.632 Y98.713 E.01709
M73 P3 R11
G1 X122.348 Y93.429 E.23689
G1 X121.809 Y93.429 E.01709
G1 X127.632 Y99.252 E.26106
G1 X127.632 Y99.792 E.01712
G1 X121.27 Y93.429 E.28524
G1 X120.731 Y93.429 E.01709
G1 X127.632 Y100.331 E.30941
G1 X127.632 Y100.87 E.01709
G1 X120.192 Y93.429 E.33357
G1 X119.652 Y93.429 E.01712
G1 X127.632 Y101.409 E.35776
G1 X127.632 Y101.948 E.01709
G1 X119.113 Y93.429 E.38192
G1 X118.84 Y93.429 E.00865
G1 X118.84 Y93.695 E.00843
G1 X127.359 Y102.214 E.38192
G1 X126.82 Y102.214 E.01709
G1 X118.84 Y94.234 E.35776
G1 X118.84 Y94.773 E.01709
G1 X126.28 Y102.214 E.33357
G1 X125.741 Y102.214 E.01709
G1 X118.84 Y95.312 E.30941
G1 X118.84 Y95.851 E.01709
G1 X125.202 Y102.214 E.28524
G1 X124.663 Y102.214 E.01709
G1 X118.84 Y96.39 E.26108
G1 X118.84 Y96.93 E.01712
M73 P4 R11
M73 Q4 S11
G1 X124.124 Y102.214 E.23689
G1 X123.585 Y102.214 E.01709
G1 X118.84 Y97.469 E.21273
G1 X118.84 Y98.008 E.01709
G1 X123.045 Y102.214 E.18854
G1 X122.506 Y102.214 E.01709
G1 X118.84 Y98.547 E.16438
G1 X118.84 Y99.086 E.01709
G1 X121.967 Y102.214 E.14021
G1 X121.428 Y102.214 E.01709
G1 X118.84 Y99.625 E.11605
G1 X118.84 Y100.165 E.01712
G1 X120.889 Y102.214 E.09186
G1 X120.35 Y102.214 E.01709
G1 X118.84 Y100.704 E.0677
G1 X118.84 Y101.243 E.01709
G1 X119.81 Y102.214 E.04351
G1 X119.271 Y102.214 E.01709
G1 X118.67 Y101.612 E.02697
M204 S1000
;WIPE_START
G1 F8640
G1 X119.271 Y102.214 E-.19642
G1 X119.81 Y102.214 E-.12446
G1 X118.84 Y101.243 E-.31691
G1 X118.84 Y100.704 E-.12446
G1 X119.568 Y101.432 E-.23775
;WIPE_END
G1 Z.4 F720
; stop printing object Arm button.stl id:0 copy 0
; printing object Arm button.stl id:1 copy 0
G1 X125.909 Y117.76 F10800
G1 Z.2 F720
G1 E1 F2100
M204 S800
;TYPE:External perimeter
;WIDTH:0.449057
G1 F1200
G1 X125.887 Y117.779 E.00098
G1 X125.247 Y117.987 E.02273
;WIDTH:0.419999
G1 X117.546 Y119.337 E.24514
G1 X116.887 Y119.427 E.02085
;WIDTH:0.438451
G1 X116.429 Y119.413 E.01507
G1 X116.026 Y119.261 E.01417
;WIDTH:0.419999
G1 X115.67 Y119.019 E.0135
G1 X115.384 Y118.699 E.01346
G1 X115.179 Y118.324 E.0134
G1 X115.063 Y117.912 E.01342
G1 X115.042 Y117.484 E.01344
G1 X115.118 Y117.061 E.01348
G1 X115.292 Y116.665 E.01356
G1 X115.564 Y116.324 E.01368
;WIDTH:0.437781
G1 X115.923 Y116.064 E.01455
G1 X116.655 Y115.849 E.02505
;WIDTH:0.419999
G1 X124.423 Y114.487 E.24728
;WIDTH:0.4392
G1 X125.267 Y114.424 E.02789
G1 X125.742 Y114.57 E.01637
;WIDTH:0.419999
G1 X126.102 Y114.807 E.01351
G1 X126.391 Y115.125 E.01347
G1 X126.597 Y115.5 E.01342
G1 X126.713 Y115.912 E.01342
G1 X126.734 Y116.339 E.0134
G1 X126.659 Y116.762 E.01347
G1 X126.488 Y117.157 E.0135
G1 X126.225 Y117.502 E.0136
;WIDTH:0.449057
G1 X125.956 Y117.722 E.01174
M204 S1000
G1 X126.582 Y117.664 F10800
M204 S800
;TYPE:Perimeter
;WIDTH:0.419999
G1 F1200
G1 X126.791 Y117.382 E.01101
G1 X127.007 Y116.907 E.01636
G1 X127.106 Y116.401 E.01617
G1 X127.089 Y115.889 E.01606
G1 X126.958 Y115.394 E.01605
G1 X126.719 Y114.94 E.01609
G1 X126.378 Y114.55 E.01624
G1 X126.053 Y114.321 E.01247
G1 X126.908 Y114.185 E.02714
G1 X149.547 Y110.215 E.72066
G1 X149.545 Y113.625 E.10692
G1 X126.641 Y117.654 E.72916
M204 S1000
;WIPE_START
G1 F8640
M73 P5 R11
M73 Q5 S11
G1 X126.582 Y117.664 E-.01382
G1 X126.791 Y117.382 E-.08105
G1 X127.007 Y116.907 E-.12049
G1 X127.106 Y116.401 E-.11905
G1 X127.089 Y115.889 E-.11829
G1 X126.958 Y115.394 E-.11823
G1 X126.719 Y114.94 E-.11847
G1 X126.378 Y114.55 E-.11962
G1 X126.053 Y114.321 E-.0918
G1 X126.477 Y114.254 E-.09918
;WIPE_END
G1 Z.4 F720
G1 X115.785 Y119.554 F10800
G1 Z.2 F720
G1 E1 F2100
M204 S800
G1 F1200
G1 X105.832 Y121.292 E.31679
G1 X105.039 Y121.392 E.02506
G1 X104.26 Y121.414 E.02443
G1 X103.483 Y121.362 E.02442
G1 X102.714 Y121.234 E.02444
G1 X101.961 Y121.034 E.02443
G1 X101.23 Y120.761 E.02447
G1 X100.53 Y120.42 E.02441
G1 X99.865 Y120.013 E.02445
G1 X99.243 Y119.543 E.02444
G1 X98.669 Y119.016 E.02443
G1 X98.148 Y118.436 E.02445
G1 X97.685 Y117.809 E.02444
G1 X97.285 Y117.14 E.02444
G1 X96.952 Y116.436 E.02442
G1 X96.688 Y115.702 E.02446
G1 X96.493 Y114.937 E.02475
G1 X96.347 Y114.152 E.02504
G1 X96.952 Y114.654 E.02465
G1 X97.523 Y115.083 E.02239
G1 X98.226 Y115.554 E.02653
G1 X99.2 Y116.111 E.03518
G1 X100.211 Y116.598 E.03519
G1 X101.316 Y117.031 E.03721
G1 X102.361 Y117.359 E.03434
G1 X103.412 Y117.611 E.03389
G1 X104.521 Y117.794 E.03524
G1 X105.77 Y117.893 E.03928
G1 X114.658 Y116.332 E.28294
G1 X115.156 Y116.224 E.01598
G1 X114.994 Y116.436 E.00837
G1 X114.771 Y116.914 E.01654
G1 X114.67 Y117.422 E.01624
G1 X114.686 Y117.935 E.01609
G1 X114.817 Y118.43 E.01605
G1 X115.056 Y118.884 E.01609
G1 X115.393 Y119.274 E.01616
G1 X115.736 Y119.519 E.01322
M204 S1000
;WIPE_START
G1 F8640
G1 X115.785 Y119.554 E-.0139
G1 X111.578 Y120.288 E-.9861
;WIPE_END
G1 Z.4 F720
G1 X149.922 Y113.942 F10800
G1 Z.2 F720
G1 E1 F2100
M204 S800
;TYPE:External perimeter
G1 F1200
G1 X126.621 Y118.041 E.7418
;WIDTH:0.442143
G1 X126.126 Y118.138 E.01674
G1 X125.596 Y118.285 E.01826
;WIDTH:0.419998
G1 X124.913 Y118.428 E.02188
G1 X117.606 Y119.71 E.2326
G1 X116.87 Y119.799 E.02324
;WIDTH:0.42077
G1 X115.633 Y119.958 E.03918
;WIDTH:0.419999
G1 X106.415 Y121.572 E.29342
G1 X105.72 Y121.686 E.02208
G1 X104.964 Y121.771 E.02385
G1 X104.033 Y121.777 E.02919
G1 X103.333 Y121.719 E.02202
G1 X102.373 Y121.534 E.03065
G1 X101.746 Y121.356 E.02044
G1 X100.802 Y120.972 E.03195
G1 X100.261 Y120.697 E.01903
G1 X99.395 Y120.131 E.03244
G1 X98.931 Y119.769 E.01845
G1 X98.212 Y119.072 E.0314
G1 X97.806 Y118.608 E.01933
G1 X97.284 Y117.872 E.02829
G1 X96.924 Y117.258 E.02232
G1 X96.584 Y116.528 E.02525
G1 X96.248 Y115.503 E.03382
G1 X96.12 Y114.997 E.01636
G1 X95.965 Y114.171 E.02635
G1 X95.71 Y113.369 E.02639
G1 X95.643 Y112.729 E.02018
G1 X96.069 Y113.205 E.02003
G1 X96.651 Y113.924 E.029
M73 Q6 S11
G1 X97.19 Y114.361 E.02176
G1 X97.733 Y114.77 E.02131
G1 X98.414 Y115.227 E.02571
G1 X99.361 Y115.77 E.03423
G1 X100.397 Y116.266 E.03601
M73 P6 R11
G1 X101.43 Y116.672 E.0348
G1 X102.45 Y116.992 E.03352
G1 X103.476 Y117.239 E.03309
G1 X104.556 Y117.419 E.03433
G1 X105.705 Y117.521 E.03617
G1 X114.816 Y115.912 E.29009
;WIDTH:0.431185
G1 X115.57 Y115.754 E.02487
;WIDTH:0.43658
G1 X116.052 Y115.613 E.01644
G1 X117.008 Y115.405 E.03202
;WIDTH:0.419999
G1 X124.451 Y114.099 E.23693
;WIDTH:0.4392
G1 X125.854 Y113.971 E.04642
;WIDTH:0.419999
G1 X126.84 Y113.814 E.0313
G1 X149.924 Y109.766 E.73483
G1 X149.922 Y113.882 E.12905
M204 S1000
;WIPE_START
G1 F8640
G1 X149.922 Y113.942 E-.01385
G1 X145.716 Y114.682 E-.98615
;WIPE_END
G1 Z.4 F720
G1 X148.744 Y110.509 F10800
G1 Z.2 F720
G1 E1 F2100
M204 S800
;TYPE:Solid infill
;WIDTH:0.423494
G1 F1200
G1 X149.226 Y110.991 E.02157
G1 X149.226 Y111.529 E.01702
G1 X148.433 Y110.736 E.03549
G1 X147.975 Y110.816 E.01471
G1 X149.225 Y112.066 E.05594
G1 X149.225 Y112.604 E.01702
G1 X147.517 Y110.896 E.07644
G1 X147.059 Y110.976 E.01471
G1 X149.225 Y113.142 E.09693
G1 X149.225 Y113.356 E.00677
G1 X148.949 Y113.404 E.00887
G1 X146.601 Y111.056 E.10508
G1 X146.143 Y111.136 E.01471
G1 X148.491 Y113.485 E.1051
G1 X148.033 Y113.565 E.01471
G1 X145.685 Y111.217 E.10508
G1 X145.227 Y111.297 E.01471
G1 X147.575 Y113.646 E.1051
G1 X147.117 Y113.726 E.01471
G1 X144.769 Y111.377 E.1051
G1 X144.311 Y111.457 E.01471
G1 X146.66 Y113.806 E.10512
G1 X146.202 Y113.887 E.01472
G1 X143.853 Y111.537 E.10515
G1 X143.394 Y111.618 E.01475
G1 X145.744 Y113.967 E.10515
G1 X145.286 Y114.047 E.01471
G1 X142.936 Y111.698 E.10515
G1 X142.478 Y111.778 E.01471
G1 X144.828 Y114.128 E.10517
G1 X144.37 Y114.208 E.01471
G1 X142.02 Y111.858 E.10517
G1 X141.562 Y111.938 E.01471
G1 X143.913 Y114.289 E.10521
G1 X143.455 Y114.369 E.01471
G1 X141.104 Y112.019 E.10519
G1 X140.646 Y112.099 E.01471
G1 X142.997 Y114.449 E.10519
G1 X142.539 Y114.53 E.01472
G1 X140.188 Y112.179 E.10521
G1 X139.73 Y112.259 E.01471
G1 X142.081 Y114.61 E.10521
G1 X141.623 Y114.69 E.01471
M73 Q7 S11
G1 X139.272 Y112.339 E.10521
M73 P7 R11
G1 X138.814 Y112.42 E.01472
G1 X141.166 Y114.771 E.10524
G1 X140.708 Y114.851 E.01471
G1 X138.356 Y112.5 E.10524
G1 X137.898 Y112.58 E.01471
G1 X140.25 Y114.932 E.10526
G1 X139.792 Y115.012 E.01471
G1 X137.44 Y112.66 E.10526
G1 X136.982 Y112.74 E.01471
G1 X139.334 Y115.092 E.10526
G1 X138.876 Y115.173 E.01472
G1 X136.524 Y112.82 E.10528
G1 X136.066 Y112.901 E.01472
G1 X138.419 Y115.253 E.10528
G1 X137.961 Y115.334 E.01472
G1 X135.608 Y112.981 E.1053
G1 X135.15 Y113.061 E.01471
G1 X137.503 Y115.414 E.1053
G1 X137.045 Y115.494 E.01471
G1 X134.692 Y113.141 E.1053
G1 X134.234 Y113.221 E.01471
G1 X136.587 Y115.575 E.10533
G1 X136.129 Y115.655 E.01471
G1 X133.776 Y113.302 E.1053
G1 X133.318 Y113.382 E.01471
M73 P7 R10
G1 X135.672 Y115.735 E.10533
G1 X135.214 Y115.816 E.01472
G1 X132.86 Y113.462 E.10535
G1 X132.402 Y113.542 E.01471
G1 X134.756 Y115.896 E.10535
G1 X134.298 Y115.977 E.01472
G1 X131.944 Y113.622 E.10537
G1 X131.486 Y113.703 E.01472
G1 X133.84 Y116.057 E.10535
G1 X133.382 Y116.137 E.01471
G1 X131.028 Y113.783 E.10535
G1 X130.57 Y113.863 E.01471
G1 X132.925 Y116.218 E.10539
G1 X132.467 Y116.298 E.01471
G1 X130.112 Y113.943 E.10539
G1 X129.654 Y114.023 E.01471
G1 X132.009 Y116.378 E.10539
G1 X131.551 Y116.459 E.01472
G1 X129.196 Y114.103 E.10541
G1 X128.738 Y114.184 E.01472
G1 X131.093 Y116.539 E.10539
G1 X130.635 Y116.62 E.01472
G1 X128.28 Y114.264 E.10541
G1 X127.822 Y114.344 E.01471
G1 X130.178 Y116.7 E.10544
G1 X129.72 Y116.78 E.01471
G1 X127.364 Y114.424 E.10544
G1 X126.906 Y114.504 E.01471
G1 X129.262 Y116.861 E.10546
G1 X128.804 Y116.941 E.01471
G1 X127.305 Y115.442 E.06708
G1 X127.4 Y115.782 E.01117
G1 X127.422 Y116.097 E.00999
G1 X128.346 Y117.021 E.04135
G1 X127.888 Y117.102 E.01472
G1 X127.396 Y116.61 E.02202
G1 X127.358 Y116.842 E.00744
G1 X127.296 Y117.047 E.00678
G1 X127.577 Y117.329 E.0126
M204 S1000
;WIPE_START
G1 F8640
G1 X127.296 Y117.047 E-.09192
G1 X127.358 Y116.842 E-.04945
G1 X127.396 Y116.61 E-.05428
G1 X127.888 Y117.102 E-.16066
G1 X128.346 Y117.021 E-.10739
G1 X127.422 Y116.097 E-.30173
G1 X127.4 Y115.782 E-.07291
G1 X127.305 Y115.442 E-.08151
G1 X127.55 Y115.687 E-.08015
;WIPE_END
G1 Z.4 F720
G1 X114.151 Y116.573 F10800
G1 Z.2 F720
G1 E1 F2100
M204 S800
;WIDTH:0.42888
G1 F1200
G1 X114.45 Y116.872 E.01357
G1 X114.361 Y117.328 E.01491
G1 X113.833 Y116.801 E.02394
G1 X113.369 Y116.882 E.01512
G1 X114.366 Y117.879 E.04525
G1 X114.38 Y118.065 E.00599
G1 X114.543 Y118.602 E.01801
G1 X112.905 Y116.964 E.07434
G1 X112.441 Y117.045 E.01512
G1 X114.792 Y119.397 E.10673
M73 Q8 S11
G1 X114.328 Y119.478 E.01512
M73 P8 R10
G1 X111.976 Y117.127 E.10673
G1 X111.512 Y117.209 E.01512
G1 X113.863 Y119.56 E.1067
G1 X113.399 Y119.641 E.01512
G1 X111.048 Y117.29 E.1067
G1 X110.584 Y117.372 E.01512
G1 X112.934 Y119.722 E.10666
G1 X112.47 Y119.804 E.01512
M73 Q8 S10
G1 X110.12 Y117.454 E.10666
G1 X109.655 Y117.535 E.01515
G1 X112.005 Y119.885 E.10666
G1 X111.541 Y119.966 E.01512
G1 X109.191 Y117.617 E.10663
G1 X108.727 Y117.698 E.01512
G1 X111.076 Y120.048 E.10663
G1 X110.612 Y120.129 E.01512
G1 X108.263 Y117.78 E.10661
G1 X107.798 Y117.862 E.01515
G1 X110.147 Y120.211 E.10661
G1 X109.683 Y120.292 E.01512
G1 X107.334 Y117.943 E.10661
G1 X106.87 Y118.025 E.01512
G1 X109.218 Y120.373 E.10657
G1 X108.754 Y120.455 E.01512
G1 X106.406 Y118.106 E.10659
G1 X105.942 Y118.188 E.01512
G1 X108.289 Y120.536 E.10654
G1 X107.825 Y120.617 E.01512
G1 X105.408 Y118.2 E.1097
G1 X104.805 Y118.143 E.01944
G1 X107.36 Y120.699 E.11598
G1 X106.896 Y120.78 E.01512
G1 X104.178 Y118.062 E.12336
G1 X103.524 Y117.954 E.02127
G1 X106.432 Y120.861 E.13196
G1 X105.967 Y120.943 E.01515
G1 X102.823 Y117.798 E.14272
G1 X102.092 Y117.614 E.02419
G1 X105.49 Y121.012 E.15422
G1 X105.015 Y121.072 E.01537
G1 X101.293 Y117.36 E.1687
G1 X100.407 Y117.02 E.03046
G1 X104.474 Y121.087 E.18458
G1 X104.266 Y121.093 E.00668
G1 X103.91 Y121.069 E.01145
G1 X99.408 Y116.567 E.20433
