; generated by PrusaSlicer 2.9.4 on 2026-06-03 at 09:43:31 UTC


;
;
; 

; external perimeters extrusion width = 0.45mm
; perimeters extrusion width = 0.45mm
; infill extrusion width = 0.45mm
; solid infill extrusion width = 0.45mm
; top infill extrusion width = 0.40mm
; support material extrusion width = 0.35mm
; first layer extrusion width = 0.42mm

M73 P0 R43
M73 Q0 S44
M201 X1000 Y1000 Z200 E5000 ; sets maximum accelerations, mm/sec^2
M203 X200 Y200 Z12 E120 ; sets maximum feedrates, mm / sec
M204 S1250 T1250 ; sets acceleration (S) and retract acceleration (R), mm/sec^2
M205 X8.00 Y8.00 Z0.40 E4.50 ; sets the jerk limits, mm/sec
M205 S0 T0 ; sets the minimum extruding and travel feed rate, mm/sec

; printing object Flap12.stl id:0 copy 0
; stop printing object Flap12.stl id:0 copy 0

;TYPE:Custom
M862.3 P "MK3S" ; printer model check
M862.1 P0.4 ; nozzle diameter check
M115 U3.14.1 ; tell printer latest fw version
G90 ; use absolute coordinates
M83 ; extruder relative mode
M104 S250 ; set extruder temp
M140 S85 ; set bed temp
M190 S85 ; wait for bed temp
M109 S250 ; wait for extruder temp
G28 W ; home all without mesh bed level
G80 X88.4311 Y80.4809 W73.4681 H48.263 ; mesh bed levelling

G1 Z0.2 F720
G1 Y-3 F1000 ; go outside print area
G92 E0
G1 X60 E9 F1000 ; intro line
G1 X100 E12.5 F1000 ; intro line

G92 E0
M221 S95

; Don't change E values below. Excessive value can damage the printer.

M907 E538 ; set extruder motor current
G21 ; set units to millimeters
G90 ; use absolute coordinates
M83 ; use relative distances for extrusion

M900 K0.08 ; Filament gcode LA 1.5
M900 K45 ; Filament gcode LA 1.0




M107
;LAYER_CHANGE
;Z:0.2
;HEIGHT:0.2
G1 E-1 F2100
M73 Q0 S43
G1 Z.4 F720
G1 X90.161 Y85.22 F10800
G1 Z.2 F720
G1 E1 F2100
M204 S800
;TYPE:Skirt/Brim
;WIDTH:0.42
G1 F1200
G1 X91.126 Y84.198 E.04407
G1 X91.829 Y83.68 E.02738
G1 X92.664 Y83.196 E.03026
G1 X95.8 Y81.981 E.10545
G1 X99.885 Y80.903 E.13247
G1 X101.231 Y80.692 E.04272
G1 X124.011 Y81.029 E.71433
G1 X140.946 Y81.437 E.53114
G1 X155.677 Y82.077 E.46232
G1 X157.262 Y82.527 E.05166
G1 X158.702 Y83.325 E.05162
G1 X159.914 Y84.42 E.05121
G1 X160.881 Y85.819 E.05332
G1 X161.469 Y87.312 E.05031
G1 X161.582 Y87.8 E.01571
G1 X161.711 Y89.441 E.05161
G1 X161.529 Y90.855 E.0447
G1 X153.332 Y123.992 E1.0703
G1 X152.624 Y125.541 E.0534
G1 X152.242 Y126.087 E.02089
G1 X151.411 Y126.953 E.03763
G1 X150.336 Y127.675 E.0406
G1 X149.111 Y128.209 E.0419
G1 X147.523 Y128.481 E.05052
G1 X112.598 Y128.555 E1.09505
G1 X104.069 Y128.437 E.26745
G1 X102.898 Y128.309 E.03693
G1 X102.254 Y128.136 E.02091
G1 X101.127 Y127.639 E.03862
G1 X100.565 Y127.28 E.02091
G1 X98.082 Y124.942 E.10693
G1 X97.313 Y123.851 E.04185
G1 X96.909 Y122.985 E.02996
G1 X96.687 Y122.259 E.0238
G1 X88.751 Y91.087 E1.00855
G1 X88.62 Y89.992 E.03458
G1 X88.696 Y88.552 E.04521
G1 X89.041 Y87.201 E.04372
G1 X89.781 Y85.726 E.05174
G1 X90.071 Y85.315 E.01577
G1 X90.12 Y85.263 E.00224
M204 S1000
;WIPE_START
G1 F8640
G1 X90.161 Y85.22 E-.01372
G1 X91.126 Y84.198 E-.32456
G1 X91.829 Y83.68 E-.20163
G1 X92.664 Y83.196 E-.22285
G1 X93.622 Y82.825 E-.23724
;WIPE_END
G1 Z.4 F720
; printing object Flap12.stl id:0 copy 0
G1 X102.224 Y82.901 F10800
G1 Z.2 F720
G1 E1 F2100
M204 S800
;TYPE:Support material
G1 F1200
G1 X102.754 Y82.962 E.01673
G1 X103.8 Y83.299 E.03446
G1 X104.782 Y83.887 E.03589
G1 X105.606 Y84.682 E.0359
G1 X105.768 Y84.933 E.00937
G1 X106.204 Y84.741 E.01494
G1 X107.375 Y84.612 E.03694
G1 X107.779 Y84.677 E.01283
G1 X107.926 Y84.548 E.00613
G1 X109.052 Y84.052 E.03858
G1 X110.276 Y83.918 E.03861
G1 X111.484 Y84.158 E.03862
G1 X112.53 Y84.731 E.0374
G1 X113.54 Y84.619 E.03186
G1 X114.748 Y84.858 E.03861
G1 X115.208 Y85.11 E.01645
G1 X115.984 Y84.45 E.03194
G1 X117.048 Y83.98 E.03647
G1 X118.273 Y83.845 E.03864
G1 X119.481 Y84.084 E.03861
G1 X120.688 Y84.745 E.04315
G1 X121.643 Y83.892 E.04015
G1 X122.743 Y83.379 E.03806
G1 X123.976 Y83.217 E.03899
G1 X125.19 Y83.419 E.03859
G1 X126.112 Y83.856 E.03199
G1 X126.666 Y84.307 E.0224
G1 X127.353 Y85.057 E.03189
G1 X127.881 Y86.173 E.03871
G1 X128.003 Y87.02 E.02683
G1 X125.927 Y87.02 E.06509
G1 X125.764 Y87.081 E.00546
G1 X120.266 Y91.784 E.22685
G1 X117.927 Y94.188 E.10517
G1 X117.174 Y95.15 E.0383
G1 X116.184 Y96.684 E.05724
G1 X115.417 Y98.314 E.05648
G1 X115.203 Y98.988 E.02217
G1 X115.041 Y99.691 E.02262
G1 X114.945 Y101.245 E.04882
G1 X115.227 Y101.537 E.01273
G1 X135.459 Y101.537 E.63436
G1 X135.74 Y101.255 E.01248
G1 X135.74 Y97.317 E.12347
G1 X135.459 Y97.036 E.01246
G1 X121.459 Y97.036 E.43896
G1 X122.445 Y95.856 E.04821
G1 X123.461 Y94.895 E.04385
G1 X129.067 Y90.041 E.23251
G1 X131.594 Y87.615 E.10983
G1 X131.35 Y87.02 E.02016
G1 X128.554 Y87.02 E.08767
G1 X129.329 Y85.739 E.04694
G1 X129.802 Y85.269 E.02091
G1 X130.359 Y84.826 E.02231
G1 X131.417 Y84.357 E.03629
G1 X132.588 Y84.225 E.03695
G1 X133.225 Y84.325 E.02022
G1 X133.886 Y84.476 E.02126
G1 X135.002 Y85.082 E.03982
G1 X135.187 Y84.919 E.00773
G1 X136.317 Y84.421 E.03872
G1 X137.488 Y84.292 E.03694
G1 X138.345 Y84.445 E.0273
G1 X138.561 Y84.255 E.00902
G1 X139.687 Y83.755 E.03863
G1 X140.858 Y83.623 E.03695
G1 X142.16 Y83.875 E.04158
G1 X143.205 Y84.446 E.03734
G1 X143.368 Y84.615 E.00736
G1 X143.573 Y84.452 E.00821
G1 X144.637 Y83.983 E.03646
G1 X145.861 Y83.847 E.03861
G1 X147.069 Y84.087 E.03862
G1 X147.9 Y84.542 E.02971
G1 X148.676 Y84.425 E.02461
G1 X149.822 Y84.517 E.03605
G1 X150.884 Y84.857 E.03496
G1 X152.1 Y84.651 E.03867
G1 X152.362 Y84.67 E.00824
G1 X153.216 Y84.332 E.0288
G1 X154.353 Y84.164 E.03604
G1 X155.498 Y84.258 E.03602
G1 X156.591 Y84.61 E.036
G1 X157.576 Y85.201 E.03602
G1 X158.391 Y85.991 E.03559
G1 X159.027 Y86.982 E.03692
G1 X159.407 Y88.048 E.03548
G1 X159.537 Y89.189 E.03601
G1 X159.405 Y90.33 E.03601
G1 X159.016 Y91.411 E.03602
G1 X158.392 Y92.375 E.03601
G1 X157.565 Y93.173 E.03603
G1 X156.579 Y93.762 E.03601
G1 X155.528 Y94.097 E.03459
G1 X154.443 Y94.19 E.03414
G1 X153.219 Y94.6 E.04047
G1 X152.099 Y94.687 E.03522
G1 X150.78 Y94.484 E.04184
G1 X150.751 Y94.675 E.00606
G1 X150.204 Y95.779 E.03863
G1 X149.982 Y96.01 E.01005
G1 X150.109 Y96.833 E.02611
M73 Q1 S43
G1 X149.918 Y98.062 E.039
G1 X149.649 Y98.604 E.01897
G1 X149.935 Y99.185 E.0203
G1 X150.124 Y100.413 E.03896
G1 X149.956 Y101.492 E.03424
M73 P1 R43
G1 X150.373 Y102.338 E.02957
G1 X150.56 Y103.557 E.03867
G1 X150.372 Y104.775 E.03864
G1 X150.002 Y105.522 E.02614
G1 X150.345 Y106.321 E.02726
G1 X150.531 Y107.524 E.03817
G1 X150.345 Y108.742 E.03863
G1 X150.031 Y109.379 E.02227
G1 X150.065 Y109.928 E.01725
G1 X150.411 Y110.629 E.02451
G1 X150.55 Y111.534 E.02871
G1 X151.222 Y112.772 E.04417
G1 X151.409 Y113.991 E.03867
G1 X151.22 Y115.21 E.03868
G1 X150.684 Y116.294 E.03792
G1 X149.901 Y117.111 E.03548
G1 X150.386 Y118.095 E.0344
G1 X150.573 Y119.312 E.03861
G1 X150.504 Y119.76 E.01421
G1 X150.662 Y119.925 E.00716
G1 X151.205 Y121.025 E.03846
G1 X151.395 Y122.253 E.03896
G1 X151.208 Y123.467 E.03851
G1 X150.662 Y124.572 E.03865
G1 X149.831 Y125.439 E.03765
G1 X149.241 Y125.779 E.02135
G1 X148.686 Y126.062 E.01953
G1 X147.519 Y126.293 E.0373
G1 X146.294 Y126.157 E.03864
G1 X145.084 Y125.622 E.04148
G1 X144.272 Y125.784 E.02596
G1 X143.048 Y125.649 E.03861
G1 X142.382 Y125.356 E.02281
G1 X141.113 Y125.639 E.04077
G1 X139.891 Y125.504 E.03855
G1 X138.766 Y125.01 E.03852
G1 X138.419 Y124.705 E.01449
G1 X137.608 Y124.847 E.02582
G1 X136.978 Y124.777 E.01987
G1 X136.131 Y125.229 E.0301
G1 X134.963 Y125.46 E.03733
G1 X133.857 Y125.337 E.03489
G1 X133.615 Y125.461 E.00853
G1 X132.447 Y125.691 E.03733
G1 X131.225 Y125.555 E.03855
G1 X130.773 Y125.356 E.01548
G1 X130.443 Y125.523 E.0116
G1 X129.275 Y125.753 E.03733
G1 X128.049 Y125.616 E.03868
G1 X127.016 Y125.158 E.03543
G1 X126.423 Y125.091 E.01871
G1 X125.777 Y124.805 E.02215
G1 X125.556 Y125.035 E.01
G1 X124.409 Y125.658 E.04093
G1 X123.24 Y125.887 E.03735
G1 X122.014 Y125.749 E.03868
G1 X120.952 Y125.277 E.03644
G1 X120.62 Y125.012 E.01332
G1 X119.615 Y125.563 E.03594
G1 X118.456 Y125.793 E.03705
G1 X117 Y125.587 E.04611
G1 X115.649 Y125.901 E.04349
G1 X114.434 Y125.764 E.03834
G1 X113.751 Y126.138 E.02442
G1 X112.593 Y126.367 E.03701
G1 X111.26 Y126.216 E.04206
G1 X110.053 Y125.622 E.04218
G1 X109.515 Y125.728 E.01719
G1 X108.293 Y125.592 E.03855
G1 X107.167 Y125.073 E.03887
G1 X106.959 Y125.114 E.00665
G1 X106.651 Y125.435 E.01395
G1 X105.606 Y126.008 E.03737
G1 X104.308 Y126.262 E.04147
G1 X103.137 Y126.133 E.03694
G1 X102.01 Y125.636 E.03862
G1 X101.084 Y124.823 E.03864
G1 X100.787 Y124.331 E.01802
G1 X100.04 Y123.805 E.02865
G1 X99.63 Y123.394 E.0182
G1 X99 Y122.34 E.0385
G1 X98.718 Y121.145 E.0385
G1 X98.808 Y119.922 E.03845
G1 X99.03 Y119.204 E.02356
G1 X99.621 Y118.225 E.03586
G1 X100.318 Y117.611 E.02912
G1 X100.318 Y117.446 E.00517
G1 X99.926 Y116.428 E.0342
G1 X99.836 Y115.293 E.0357
G1 X99.625 Y114.944 E.01279
G1 X99.401 Y114.22 E.02376
G1 X99.311 Y112.995 E.03851
G1 X99.529 Y112.011 E.0316
G1 X99.134 Y111.205 E.02814
G1 X99.016 Y110.195 E.03188
G1 X99.057 Y109.157 E.03257
G1 X99.597 Y108.1 E.03722
G1 X99.542 Y107.092 E.03165
G1 X99.753 Y106.131 E.03085
G1 X99.645 Y105.504 E.01995
G1 X99.645 Y104.853 E.02041
G1 X99.8 Y104.071 E.025
G1 X99.545 Y102.961 E.03571
G1 X99.545 Y102.317 E.02019
G1 X99.725 Y101.448 E.02783
G1 X99.463 Y100.32 E.03631
G1 X99.463 Y99.67 E.02038
G1 X99.597 Y98.958 E.02272
G1 X99.45 Y98.199 E.02424
G1 X99.45 Y97.553 E.02025
G1 X99.769 Y96.236 E.04249
G1 X99.591 Y95.66 E.0189
G1 X99.258 Y95.687 E.01048
G1 X98.121 Y95.516 E.03605
G1 X97.052 Y95.091 E.03607
G1 X96.392 Y94.631 E.02522
G1 X95.585 Y94.683 E.02536
G1 X94.479 Y94.514 E.03508
G1 X93.41 Y94.084 E.03613
G1 X92.468 Y93.423 E.03608
G1 X91.759 Y92.629 E.03338
G1 X91.138 Y91.508 E.04018
G1 X90.871 Y90.547 E.03127
G1 X90.808 Y89.355 E.03743
G1 X90.871 Y88.796 E.01764
G1 X91.151 Y87.785 E.03289
G1 X91.702 Y86.774 E.0361
G1 X92.44 Y85.949 E.03471
G1 X93.478 Y85.228 E.03963
G1 X94.44 Y84.842 E.0325
G1 X94.967 Y84.744 E.01681
G1 X95.291 Y84.519 E.01237
G1 X96.358 Y84.097 E.03598
G1 X97.493 Y83.927 E.03598
G1 X98.545 Y84.013 E.03309
G1 X99.436 Y83.412 E.0337
G1 X100.443 Y83.019 E.03389
G1 X101.547 Y82.858 E.03498
G1 X102.167 Y82.898 E.01948
M204 S1000
;WIPE_START
G1 F8640
G1 X101.547 Y82.858 E-.14346
G1 X100.443 Y83.019 E-.25761
G1 X99.436 Y83.412 E-.2496
G1 X98.545 Y84.013 E-.24816
G1 X98.108 Y83.977 E-.10117
;WIPE_END
G1 Z.4 F720
G1 X158.937 Y91.129 F10800
G1 Z.2 F720
G1 E1 F2100
M204 S800
G1 F1200
G1 X158.937 Y87.739 E.10629
G1 X158.72 Y87.13 E.02027
G1 X158.518 Y86.809 E.01189
G1 X158.518 Y91.556 E.14884
G1 X158.099 Y92.187 E.02375
G1 X158.099 Y86.181 E.18831
G1 X157.68 Y85.775 E.01829
G1 X157.68 Y92.591 E.21371
G1 X157.261 Y92.959 E.01749
G1 X157.261 Y85.408 E.23676
G1 X156.842 Y85.157 E.01531
G1 X156.842 Y93.209 E.25246
G1 X156.423 Y93.455 E.01523
G1 X156.423 Y84.912 E.26786
G1 X156.004 Y84.778 E.01379
G1 X156.004 Y93.589 E.27626
G1 X155.585 Y93.722 E.01378
G1 X155.585 Y84.643 E.28467
G1 X155.166 Y84.571 E.01333
G1 X155.166 Y93.796 E.28924
G1 X154.747 Y93.832 E.01319
G1 X154.747 Y84.537 E.29144
G1 X154.328 Y84.51 E.01316
G1 X154.328 Y93.863 E.29326
G1 X153.909 Y94.033 E.01418
G1 X153.909 Y84.572 E.29664
G1 X153.49 Y84.635 E.01329
G1 X153.49 Y94.165 E.29881
G1 X153.071 Y94.271 E.01355
G1 X153.071 Y84.754 E.2984
G1 X152.652 Y84.92 E.01413
G1 X152.652 Y94.303 E.2942
G1 X152.234 Y94.336 E.01315
G1 X152.234 Y85.001 E.29269
G1 X151.815 Y85.037 E.01319
G1 X151.815 Y94.3 E.29043
G1 X151.396 Y94.235 E.01329
G1 X151.396 Y85.1 E.28642
G1 X151.064 Y85.15 E.01053
G1 X150.977 Y85.185 E.00294
G1 X150.977 Y94.171 E.28175
G1 X150.558 Y94.107 E.01329
G1 X150.558 Y85.109 E.28213
G1 X150.139 Y84.974 E.0138
G1 X150.139 Y95.529 E.33094
M204 S1000
;WIPE_START
G1 F8640
G1 X150.139 Y91.198 E-1
;WIPE_END
G1 Z.4 F720
G1 X150.977 Y123.552 F10800
G1 Z.2 F720
G1 E1 F2100
M204 S800
G1 F1200
G1 X150.977 Y121.757 E.05628
G1 X150.878 Y121.129 E.01993
G1 X150.558 Y120.48 E.02269
G1 X150.558 Y124.017 E.1109
G1 X150.381 Y124.375 E.01252
G1 X150.139 Y124.628 E.01098
G1 X150.139 Y118.72 E.18524
G1 X150.058 Y118.198 E.01656
G1 X149.72 Y117.512 E.02398
G1 X149.72 Y125.065 E.23682
G1 X149.301 Y125.353 E.01594
G1 X149.301 Y84.815 E1.27104
G1 X149.72 Y84.849 E.01318
G1 X149.72 Y98.079 E.41482
M204 S1000
;WIPE_START
G1 F8640
G1 X149.72 Y93.748 E-1
;WIPE_END
G1 Z.4 F720
G1 X150.977 Y115.32 F10800
G1 Z.2 F720
G1 E1 F2100
M204 S800
G1 F1200
G1 X150.977 Y113.411 E.05986
G1 X150.894 Y112.875 E.01701
G1 X150.558 Y112.193 E.02384
G1 X150.558 Y115.784 E.11259
G1 X150.402 Y116.099 E.01102
G1 X150.139 Y116.383 E.01214
G1 X150.139 Y110.462 E.18565
M204 S1000
G1 X150.139 Y108.776 F10800
M204 S800
G1 F1200
G1 X150.139 Y106.283 E.07817
M204 S1000
G1 X150.139 Y104.863 F10800
M204 S800
G1 F1200
G1 X150.139 Y102.246 E.08205
M204 S1000
G1 X149.72 Y117.052 F10800
M204 S800
G1 F1200
G1 X149.72 Y99.131 E.5619
M204 S1000
G1 X148.882 Y125.772 F10800
M204 S800
G1 F1200
G1 X148.882 Y84.782 E1.28521
G1 X148.463 Y84.8 E.01315
M73 P2 R43
M73 Q2 S43
G1 X148.463 Y125.76 E1.28427
G1 X148.044 Y125.843 E.01339
M73 P2 R42
G1 X148.044 Y84.863 E1.2849
G1 X147.837 Y84.894 E.00656
G1 X147.625 Y84.778 E.00758
G1 X147.625 Y125.926 E1.29017
G1 X147.504 Y125.95 E.00387
G1 X147.206 Y125.917 E.0094
G1 X147.206 Y84.548 E1.2971
G1 X146.787 Y84.377 E.01419
G1 X146.787 Y125.87 E1.30098
G1 X146.368 Y125.819 E.01323
G1 X146.368 Y84.294 E1.30199
G1 X145.949 Y84.211 E.01339
M73 Q2 S42
G1 X145.949 Y125.633 E1.29876
G1 X145.53 Y125.448 E.01436
G1 X145.53 Y84.225 E1.29252
G1 X145.111 Y84.272 E.01322
G1 X145.111 Y125.271 E1.28549
G1 X144.692 Y125.354 E.01339
G1 X144.692 Y84.329 E1.28631
G1 X144.273 Y84.514 E.01436
G1 X144.257 Y125.44 E1.28321
G1 X143.854 Y125.396 E.01271
G1 X143.854 Y84.699 E1.27603
G1 X143.435 Y84.996 E.0161
M73 Q3 S42
G1 X143.435 Y125.35 E1.26527
M73 P3 R42
G1 X143.016 Y125.264 E.01341
G1 X143.016 Y84.739 E1.27063
G1 X142.597 Y84.501 E.01511
G1 X142.597 Y125.079 E1.27229
G1 X142.371 Y124.98 E.00774
G1 X142.178 Y125.079 E.0068
G1 X142.178 Y84.272 E1.27947
G1 X141.759 Y84.132 E.01385
G1 X141.759 Y125.165 E1.28656
G1 X141.34 Y125.248 E.01339
G1 X141.34 Y84.042 E1.29199
G1 X140.921 Y83.977 E.01329
G1 X140.921 Y125.276 E1.2949
G1 X140.502 Y125.23 E.01322
G1 X140.502 Y84.005 E1.29258
G1 X140.083 Y84.052 E.01322
G1 X140.083 Y125.184 E1.28966
G1 X139.664 Y125.034 E.01395
G1 X139.664 Y84.136 E1.28233
G1 X139.245 Y84.322 E.01437
G1 X139.245 Y124.849 E1.2707
G1 X138.826 Y124.611 E.01511
G1 X138.826 Y84.508 E1.2574
G1 X138.407 Y84.808 E.01616
G1 X138.407 Y124.36 E1.24013
G1 X137.988 Y124.443 E.01339
M73 P4 R42
M73 Q4 S42
G1 X137.988 Y84.715 E1.24564
G1 X137.569 Y84.649 E.0133
G1 X137.569 Y124.501 E1.24953
G1 X137.15 Y124.455 E.01322
G1 X137.15 Y84.671 E1.2474
G1 X136.731 Y84.717 E.01322
G1 X136.731 Y124.528 E1.24825
G1 X136.312 Y124.756 E.01496
G1 X136.312 Y84.794 E1.25298
G1 X135.893 Y84.979 E.01436
M73 P4 R41
G1 X135.893 Y96.991 E.37663
G1 X135.599 Y96.697 E.01304
G1 X135.474 Y96.697 E.00392
G1 X135.474 Y85.163 E.36164
G1 X135.055 Y85.487 E.01661
G1 X135.055 Y96.697 E.35148
G1 X134.636 Y96.697 E.01314
G1 X134.636 Y85.27 E.35829
G1 X134.217 Y85.042 E.01496
G1 X134.217 Y96.697 E.36543
G1 X133.799 Y96.697 E.01311
G1 X133.799 Y84.814 E.37258
G1 X133.38 Y84.708 E.01355
G1 X133.38 Y96.697 E.37591
G1 X132.961 Y96.697 E.01314
G1 X132.961 Y84.627 E.37845
G1 X132.542 Y84.571 E.01325
G1 X132.542 Y96.697 E.3802
G1 X132.123 Y96.697 E.01314
G1 X132.123 Y84.619 E.3787
G1 X131.704 Y84.666 E.01322
G1 X131.704 Y86.989 E.07284
G1 X131.577 Y86.681 E.01045
G1 X131.285 Y86.681 E.00916
G1 X131.285 Y84.787 E.05939
G1 X130.866 Y84.973 E.01437
G1 X130.866 Y86.681 E.05355
G1 X130.447 Y86.681 E.01314
G1 X130.447 Y85.19 E.04675
G1 X130.028 Y85.524 E.0168
G1 X130.028 Y86.681 E.03628
G1 X129.609 Y86.681 E.01314
G1 X129.609 Y85.94 E.02323
G1 X129.19 Y86.625 E.02518
G1 X129.19 Y86.85 E.00705
M204 S1000
;WIPE_START
G1 F8640
G1 X129.19 Y86.625 E-.05195
G1 X129.609 Y85.94 E-.18541
G1 X129.609 Y86.681 E-.1711
G1 X130.028 Y86.681 E-.09675
G1 X130.028 Y85.524 E-.26715
